packages/core/src/svgs/tokens/mono/PORTAL.svg

<svg width="24" height="24" viewBox="0 0 24 24" fill="none" xmlns="http://www.w3.org/2000/svg">
<path fill-rule="evenodd" clip-rule="evenodd" d="M20.3334 7.00001L12.0001 2L3.66675 7.00001V17.0001L12.0001 22L20.3334 17.0001V7.00001ZM8.66711 6.25918V17.7975L11.4449 16.5113V9.9819L13.1116 8.62363V14.1041L11.4793 15.342L15.8893 17.7975V10.1003L13.1116 8.61974V8.62363L8.66711 6.25918Z" fill="white"/>
</svg>

<svg xmlns="http://www.w3.org/2000/svg" width="24" height="24" fill="none" viewBox="0 0 24 24">
    <path fill="#fff" fill-rule="evenodd" d="M20.333 7 12 2 3.667 7v10L12 22l8.333-5zM8.667 6.26v11.537l2.778-1.286v-6.53l1.667-1.357v5.48l-1.633 1.238 4.41 2.455V10.1l-2.777-1.48v.004z" clip-rule="evenodd"/>
</svg>
